src/assets/icons/ico-stroke-2step.svg

<svg width="24" height="22" viewBox="0 0 24 22" fill="none" xmlns="http://www.w3.org/2000/svg">
<path d="M17.7737 21.0037L17.7519 20.9897C17.2509 20.6676 16.9339 20.25 16.795 19.7563C16.6597 19.2756 16.7066 18.7708 16.8381 18.2857C17.0969 17.3316 17.7317 16.2935 18.3145 15.361L18.3183 15.355L18.3222 15.3492C18.5209 15.0511 18.7672 14.6374 18.99 14.219C18.8362 14.3399 18.676 14.4704 18.5118 14.6078C17.9463 15.081 17.3545 15.6171 16.8358 16.0869L16.8358 16.087L16.8356 16.0871C16.6976 16.2121 16.5648 16.3324 16.4391 16.4456L16.4341 16.4501L16.1609 16.6893C14.8426 17.8448 13.477 19.0419 12.1925 19.749C11.5012 20.1296 10.7912 20.3934 10.0902 20.413C9.36918 20.4332 8.69146 20.1937 8.09648 19.6337C7.52302 19.0957 7.26496 18.4423 7.26496 17.7179C7.26496 17.0163 7.50613 16.2708 7.8752 15.5096C8.58088 14.0541 9.84127 12.3744 11.1859 10.5824L11.1859 10.5824L11.351 10.3624C11.5267 10.1135 11.7305 9.83029 11.9515 9.52306L11.9516 9.52292C12.6381 8.56856 13.4912 7.38275 14.1881 6.2765C14.6503 5.54292 15.0269 4.87015 15.2376 4.34246C15.3254 4.12257 15.3764 3.94722 15.398 3.81519C15.2257 3.84993 15.013 3.91882 14.7582 4.03047C14.3717 4.19984 13.9223 4.45223 13.4212 4.77851C12.4192 5.43086 11.2471 6.35432 10.0125 7.42723C7.54507 9.57157 4.86693 12.2789 2.86587 14.5153L2.85699 14.5253L2.84757 14.5347C2.19285 15.1894 1.2134 15.1852 0.563309 14.6976L0.536019 14.6771L0.511897 14.653C-0.142817 13.9983 -0.138602 13.0189 0.348962 12.3688L0.364768 12.3477L0.382785 12.3285C0.455247 12.2512 0.539755 12.1606 0.635494 12.0581L0.635518 12.058C1.708 10.909 4.18978 8.24997 6.93657 5.79016C8.43194 4.45102 10.0177 3.16009 11.507 2.20117C12.9747 1.25619 14.4302 0.578857 15.6446 0.578857C16.2537 0.578857 16.7185 0.715616 17.0889 0.919346C17.4449 1.11513 17.6924 1.36272 17.868 1.53834L17.8867 1.55704C19.1756 2.9176 18.8426 4.72902 17.9709 6.54753C17.1523 8.25549 15.7635 10.175 14.347 12.133C14.2387 12.2827 14.1302 12.4327 14.0218 12.5828L14.0198 12.5856L13.9141 12.7297C13.2798 13.5943 12.5085 14.6458 11.8566 15.6167C11.5673 16.0476 11.3047 16.4579 11.0898 16.8252C11.3087 16.666 11.5443 16.4815 11.7895 16.28C12.4601 15.7292 13.1698 15.0801 13.7668 14.5342C13.8964 14.4156 14.0208 14.3019 14.1382 14.1951L14.1391 14.1944C15.3727 13.0782 16.5883 11.9821 17.7245 11.2604C18.8451 10.5488 20.0322 10.1078 21.1484 10.5543C21.8413 10.8314 22.4508 11.4035 22.618 12.1777C22.8925 13.03 22.735 13.914 22.4097 14.7659C22.1312 15.4954 21.7104 16.2494 21.266 17C21.5244 16.7761 21.855 16.6481 22.1821 16.6169C22.6003 16.5771 23.0638 16.6912 23.4156 17.0276C23.7602 17.2996 23.9532 17.7172 23.9924 18.1291C24.0332 18.5571 23.9127 19.0323 23.5581 19.3869L22.9393 19.7806C22.7561 19.9272 22.5253 20.1113 22.2722 20.2944C21.5655 20.8056 20.541 21.421 19.4316 21.421C18.8753 21.421 18.3289 21.2813 17.7968 21.0153L17.7737 21.0037Z" fill="currentColor"/>
</svg>

<svg width="24" height="22" fill="none" xmlns="http://www.w3.org/2000/svg"><path d="m17.7737 21.0037-.0218-.014c-.501-.3221-.818-.7397-.9569-1.2334-.1353-.4807-.0884-.9855.0431-1.4706.2588-.9541.8936-1.9922 1.4764-2.9247l.0038-.006.0039-.0058c.1987-.2981.445-.7118.6678-1.1302-.1538.1209-.314.2514-.4782.3888-.5655.4732-1.1573 1.0093-1.676 1.4791v.0001l-.0002.0001c-.138.125-.2708.2453-.3965.3585l-.005.0045-.2732.2392c-1.3183 1.1555-2.6839 2.3526-3.9684 3.0597-.6913.3806-1.4013.6444-2.1023.664-.721.0202-1.3987-.2193-1.9937-.7793-.5735-.538-.8315-1.1914-.8315-1.9158 0-.7016.2411-1.4471.6102-2.2083.7057-1.4555 1.966-3.1352 3.3107-4.9272l.1651-.22c.1757-.2489.3795-.5321.6005-.8393l.0001-.0002c.6865-.9543 1.5396-2.1402 2.2365-3.2464.4622-.7336.8388-1.4064 1.0495-1.934.0878-.22.1388-.3953.1604-.5273-.1723.0347-.385.1036-.6398.2153-.3865.1693-.8359.4217-1.337.748-1.002.6524-2.1741 1.5758-3.4087 2.6487-2.4674 2.1444-5.1456 4.8517-7.1466 7.0881l-.009.01-.0093.0094c-.6547.6547-1.6342.6505-2.2843.1629l-.0273-.0205-.0241-.0241c-.6547-.6547-.6505-1.6341-.163-2.2842l.0159-.0211.018-.0192c.0724-.0773.157-.1679.2527-.2704v-.0001c1.0725-1.149 3.5543-3.808 6.301-6.2678C8.432 4.451 10.0178 3.16 11.507 2.2012c1.4677-.945 2.9232-1.6223 4.1376-1.6223.6091 0 1.0739.1367 1.4443.3404.356.1958.6035.4434.7791.619l.0187.0187c1.2889 1.3606.9559 3.172.0842 4.9905-.8186 1.708-2.2074 3.6275-3.6239 5.5855l-.3252.4498-.002.0028-.1057.1441c-.6343.8646-1.4056 1.9161-2.0575 2.887-.2893.4309-.5519.8412-.7668 1.2085.2189-.1592.4545-.3437.6997-.5452.6706-.5508 1.3803-1.1999 1.9773-1.7458.1296-.1186.254-.2323.3714-.3391l.0009-.0007c1.2336-1.1162 2.4492-2.2123 3.5854-2.934 1.1206-.7116 2.3077-1.1526 3.4239-.7061.6929.2771 1.3024.8492 1.4696 1.6234.2745.8523.117 1.7363-.2083 2.5882-.2785.7295-.6993 1.4835-1.1437 2.2341.2584-.2239.589-.3519.9161-.3831.4182-.0398.8817.0743 1.2335.4107.3446.272.5376.6896.5768 1.1015.0408.428-.0797.9032-.4343 1.2578l-.6188.3937c-.1832.1466-.414.3307-.6671.5138-.7067.5112-1.7312 1.1266-2.8406 1.1266-.5563 0-1.1027-.1397-1.6348-.4057l-.0231-.0116Z" fill="currentColor"/></svg>
